packages/kaspersky-hexa-ui-icons/src/iconsSVGs/16/NamedPipe.svg

<svg width="16" height="16" viewBox="0 0 16 16" fill="none" xmlns="http://www.w3.org/2000/svg">
<path fill-rule="evenodd" clip-rule="evenodd" d="M3.65 4.892C4.43549 4.62221 5 3.87703 5 3C5 1.89543 4.10457 1 3 1C1.89543 1 1 1.89543 1 3C1 3.87703 1.56451 4.62221 2.35 4.892V8C2.35 8.2462 2.4891 8.47127 2.70931 8.58138L4.35 9.40172V11H4C2.89543 11 2 11.8954 2 13C2 14.1046 2.89543 15 4 15H12C13.1046 15 14 14.1046 14 13C14 11.8954 13.1046 11 12 11H11.65V9.40172L13.2907 8.58138C13.5109 8.47127 13.65 8.2462 13.65 8V4.892C14.4355 4.62221 15 3.87703 15 3C15 1.89543 14.1046 1 13 1C11.8954 1 11 1.89543 11 3C11 3.87703 11.5645 4.62221 12.35 4.892V7.59828L10.7093 8.41862C10.4891 8.52873 10.35 8.7538 10.35 9V11H8.65V7.892C9.43549 7.62221 10 6.87703 10 6C10 4.89543 9.10457 4 8 4C6.89543 4 6 4.89543 6 6C6 6.87703 6.56451 7.62221 7.35 7.892V11H5.65V9C5.65 8.7538 5.5109 8.52873 5.29069 8.41862L3.65 7.59828V4.892ZM3.7 3C3.7 3.3866 3.3866 3.7 3 3.7C2.6134 3.7 2.3 3.3866 2.3 3C2.3 2.6134 2.6134 2.3 3 2.3C3.3866 2.3 3.7 2.6134 3.7 3ZM13.7 3C13.7 3.3866 13.3866 3.7 13 3.7C12.6134 3.7 12.3 3.3866 12.3 3C12.3 2.6134 12.6134 2.3 13 2.3C13.3866 2.3 13.7 2.6134 13.7 3ZM8 6.7C8.3866 6.7 8.7 6.3866 8.7 6C8.7 5.6134 8.3866 5.3 8 5.3C7.6134 5.3 7.3 5.6134 7.3 6C7.3 6.3866 7.6134 6.7 8 6.7ZM3.3 13C3.3 12.6134 3.6134 12.3 4 12.3H12C12.3866 12.3 12.7 12.6134 12.7 13C12.7 13.3866 12.3866 13.7 12 13.7H4C3.6134 13.7 3.3 13.3866 3.3 13Z" fill="black"/>
</svg>

<svg xmlns="http://www.w3.org/2000/svg" width="16" height="16" fill="none" viewBox="0 0 16 16"><path fill="#000" fill-rule="evenodd" d="M3.65 4.892C4.4355 4.6222 5 3.877 5 3c0-1.1046-.8954-2-2-2s-2 .8954-2 2c0 .877.5645 1.6222 1.35 1.892V8a.65.65 0 0 0 .3593.5814l1.6407.8203V11H4c-1.1046 0-2 .8954-2 2s.8954 2 2 2h8c1.1046 0 2-.8954 2-2s-.8954-2-2-2h-.35V9.4017l1.6407-.8203A.65.65 0 0 0 13.65 8V4.892C14.4355 4.6222 15 3.877 15 3c0-1.1046-.8954-2-2-2s-2 .8954-2 2c0 .877.5645 1.6222 1.35 1.892v2.7063l-1.6407.8203A.65.65 0 0 0 10.35 9v2h-1.7V7.892C9.4355 7.6222 10 6.877 10 6c0-1.1046-.8954-2-2-2s-2 .8954-2 2c0 .877.5645 1.6222 1.35 1.892V11h-1.7V9a.65.65 0 0 0-.3593-.5814L3.65 7.5983zM3.7 3a.7.7 0 1 1-1.4 0 .7.7 0 0 1 1.4 0m10 0a.7.7 0 1 1-1.4 0 .7.7 0 0 1 1.4 0M8 6.7a.7.7 0 1 0 0-1.4.7.7 0 0 0 0 1.4M3.3 13a.7.7 0 0 1 .7-.7h8a.7.7 0 1 1 0 1.4H4a.7.7 0 0 1-.7-.7"/></svg>
